resources/svg/radar-fill.svg

<svg fill="currentColor" viewBox="0 0 24 24" xmlns="http://www.w3.org/2000/svg"><path d="M14.3685 4.39825L10.8842 10.4332L12.6163 11.4332L16.1006 5.39825C20.27 8.1702 22.4058 12.4773 20.6605 15.5002C18.8003 18.7223 13.4717 18.8552 8.75027 16.1294C4.0289 13.4035 1.47976 8.72227 3.34002 5.50019C5.08527 2.47733 9.88324 2.17339 14.3685 4.39825ZM15.8842 1.77295L17.6163 2.77295L16.1163 5.37103L14.3842 4.37103L15.8842 1.77295ZM6.73233 20.0002H17.0003V22.0002H5.01761C4.94008 22.0016 4.86194 21.994 4.78481 21.977C4.77025 21.9737 4.7558 21.9702 4.74147 21.9664C4.6589 21.9442 4.57784 21.911 4.50028 21.8662C4.47106 21.8493 4.44301 21.8312 4.41616 21.812C4.30161 21.7294 4.20524 21.6232 4.1342 21.5004C4.06328 21.3774 4.01939 21.2406 4.00518 21.0999C4.00446 21.0926 4.00381 21.0852 4.00325 21.0779C3.98786 20.8832 4.02924 20.6821 4.13425 20.5002L6.38425 16.6031L8.1163 17.6031L6.73233 20.0002Z"/></svg>

<svg xmlns="http://www.w3.org/2000/svg" viewBox="0 0 24 24" fill="currentColor">
    <g>
        <path fill="none" d="M0 0h24v24H0z"/>
        <path d="M14.368 4.398l-3.484 6.035 1.732 1L16.1 5.398c4.17 2.772 6.306 7.08 4.56 10.102-1.86 3.222-7.189 3.355-11.91.63C4.029 13.402 1.48 8.721 3.34 5.5c1.745-3.023 6.543-3.327 11.028-1.102zm1.516-2.625l1.732 1-1.5 2.598-1.732-1 1.5-2.598zM6.732 20H17v2H5.017a.995.995 0 0 1-.883-.5 1.005 1.005 0 0 1 0-1l2.25-3.897 1.732 1L6.732 20z"/>
    </g>
</svg>
